X:46
T:Washington's Artillery March
C:Trad.
M:2/4
Q:1/4=100
L:1/8
K:D
%%MIDI channel 1
%%MIDI program 72
%%MIDI transpose 8
%%MIDI grace 1/8
%%MIDI ratio 3 1
f/e/|dd AA|BB Ad|c/d/e/f/ gf|Tf2ef/e/|\
dd AA|BB Ad|c/d/e/f/ g/f/e/d/|e2d::
A|AA A/A/A|dA/A/ Af|gg ff|(Tf2e)A|AA A/A/A|\
dA/A/ Ad|c/d/e/f/ g/e/d/c/|e2d::
A|dA fA|dA/d/ fA|dA df|d2 ff|ge ea/g/|\
fd dd|c/d/e/f/ g/e/d/c/|e2d:|
